SF_Symbols/nose.svg

<?xml version="1.0" encoding="UTF-8"?>
<svg xmlns="http://www.w3.org/2000/svg" xmlns:xlink="http://www.w3.org/1999/xlink" width="24" height="24" viewBox="0 0 24 24" version="1.1">
<g id="surface1">
<path style=" stroke:none;fill-rule:nonzero;fill:rgb(100%,100%,100%);fill-opacity:1;" d="M 5.390625 23.648438 C 5.9375 23.648438 6.480469 23.542969 7.019531 23.332031 C 7.558594 23.121094 8.066406 22.824219 8.542969 22.441406 L 7.335938 21.222656 C 7.046875 21.425781 6.738281 21.582031 6.410156 21.691406 C 6.089844 21.800781 5.753906 21.855469 5.402344 21.855469 C 4.785156 21.855469 4.230469 21.726562 3.738281 21.46875 C 3.253906 21.210938 2.871094 20.855469 2.589844 20.402344 C 2.308594 19.949219 2.167969 19.425781 2.167969 18.832031 C 2.167969 17.972656 2.378906 17.265625 2.800781 16.710938 C 3.230469 16.148438 3.792969 15.75 4.488281 15.515625 C 5.183594 15.28125 5.941406 15.226562 6.761719 15.351562 C 7.230469 14.3125 7.636719 13.214844 7.980469 12.058594 C 8.324219 10.902344 8.628906 9.734375 8.894531 8.554688 C 9.167969 7.375 9.441406 6.226562 9.714844 5.109375 C 9.886719 4.390625 10.148438 3.839844 10.5 3.457031 C 10.859375 3.074219 11.359375 2.882812 12 2.882812 C 12.632812 2.882812 13.125 3.074219 13.476562 3.457031 C 13.835938 3.839844 14.101562 4.390625 14.273438 5.109375 C 14.546875 6.226562 14.820312 7.375 15.09375 8.554688 C 15.367188 9.734375 15.671875 10.902344 16.007812 12.058594 C 16.351562 13.214844 16.761719 14.3125 17.238281 15.351562 C 18.050781 15.226562 18.804688 15.28125 19.5 15.515625 C 20.203125 15.75 20.765625 16.148438 21.1875 16.710938 C 21.617188 17.265625 21.832031 17.972656 21.832031 18.832031 C 21.832031 19.425781 21.691406 19.949219 21.410156 20.402344 C 21.128906 20.855469 20.742188 21.210938 20.25 21.46875 C 19.765625 21.726562 19.214844 21.855469 18.597656 21.855469 C 18.246094 21.855469 17.90625 21.800781 17.578125 21.691406 C 17.257812 21.582031 16.949219 21.425781 16.652344 21.222656 L 15.457031 22.441406 C 15.925781 22.824219 16.429688 23.121094 16.96875 23.332031 C 17.515625 23.542969 18.0625 23.648438 18.609375 23.648438 C 19.648438 23.648438 20.554688 23.441406 21.328125 23.027344 C 22.109375 22.621094 22.714844 22.046875 23.144531 21.304688 C 23.574219 20.570312 23.789062 19.707031 23.789062 18.714844 C 23.789062 17.777344 23.574219 16.933594 23.144531 16.183594 C 22.722656 15.425781 22.125 14.808594 21.351562 14.332031 C 20.578125 13.847656 19.675781 13.550781 18.644531 13.441406 C 18.378906 12.746094 18.125 12.035156 17.882812 11.308594 C 17.640625 10.582031 17.414062 9.847656 17.203125 9.105469 C 16.992188 8.355469 16.789062 7.609375 16.59375 6.867188 C 16.40625 6.117188 16.226562 5.375 16.054688 4.640625 C 15.789062 3.445312 15.320312 2.539062 14.648438 1.921875 C 13.976562 1.304688 13.09375 0.996094 12 0.996094 C 10.90625 0.996094 10.023438 1.304688 9.351562 1.921875 C 8.679688 2.539062 8.210938 3.445312 7.945312 4.640625 C 7.773438 5.375 7.589844 6.117188 7.394531 6.867188 C 7.207031 7.609375 7.003906 8.355469 6.785156 9.105469 C 6.574219 9.847656 6.347656 10.582031 6.105469 11.308594 C 5.871094 12.035156 5.621094 12.746094 5.355469 13.441406 C 4.316406 13.550781 3.410156 13.847656 2.636719 14.332031 C 1.871094 14.808594 1.273438 15.425781 0.84375 16.183594 C 0.421875 16.933594 0.210938 17.777344 0.210938 18.714844 C 0.210938 19.707031 0.425781 20.570312 0.855469 21.304688 C 1.285156 22.046875 1.886719 22.621094 2.660156 23.027344 C 3.441406 23.441406 4.351562 23.648438 5.390625 23.648438 Z M 12 24 C 12.953125 24 13.769531 23.871094 14.449219 23.613281 C 15.128906 23.355469 15.707031 23.019531 16.183594 22.605469 C 16.660156 22.199219 17.070312 21.769531 17.414062 21.316406 C 17.671875 21.472656 17.941406 21.550781 18.222656 21.550781 C 18.691406 21.550781 19.054688 21.414062 19.3125 21.140625 C 19.570312 20.867188 19.699219 20.558594 19.699219 20.214844 C 19.699219 19.878906 19.578125 19.574219 19.335938 19.300781 C 19.09375 19.019531 18.753906 18.878906 18.316406 18.878906 C 17.996094 18.878906 17.726562 18.960938 17.507812 19.125 C 17.296875 19.289062 17.058594 19.511719 16.792969 19.792969 C 16.308594 20.316406 15.828125 20.742188 15.351562 21.070312 C 14.875 21.398438 14.367188 21.640625 13.828125 21.796875 C 13.289062 21.953125 12.679688 22.03125 12 22.03125 C 11.320312 22.03125 10.707031 21.953125 10.160156 21.796875 C 9.621094 21.640625 9.113281 21.398438 8.636719 21.070312 C 8.160156 20.742188 7.683594 20.316406 7.207031 19.792969 C 6.941406 19.511719 6.699219 19.289062 6.480469 19.125 C 6.261719 18.960938 5.996094 18.878906 5.683594 18.878906 C 5.238281 18.878906 4.894531 19.019531 4.652344 19.300781 C 4.417969 19.574219 4.300781 19.878906 4.300781 20.214844 C 4.300781 20.558594 4.429688 20.867188 4.6875 21.140625 C 4.945312 21.414062 5.304688 21.550781 5.765625 21.550781 C 6.046875 21.550781 6.316406 21.472656 6.574219 21.316406 C 6.925781 21.769531 7.339844 22.199219 7.816406 22.605469 C 8.292969 23.019531 8.871094 23.355469 9.550781 23.613281 C 10.230469 23.871094 11.046875 24 12 24 Z M 12 24 "/>
</g>
</svg>

<svg xmlns="http://www.w3.org/2000/svg" width="24" height="24"><path style="stroke:none;fill-rule:nonzero;fill:#fff;fill-opacity:1" d="M5.39 23.648c.548 0 1.09-.105 1.63-.316a5.793 5.793 0 0 0 1.523-.89l-1.207-1.22c-.29.204-.598.36-.926.47-.32.109-.656.163-1.008.163a3.568 3.568 0 0 1-1.664-.386 2.957 2.957 0 0 1-1.148-1.067c-.281-.453-.422-.976-.422-1.57 0-.86.21-1.566.633-2.121.43-.563.992-.961 1.687-1.195.696-.235 1.453-.29 2.274-.164.48-1.07.886-2.168 1.218-3.293a53.64 53.64 0 0 0 .915-3.504c.273-1.18.546-2.328.82-3.446.172-.718.433-1.27.785-1.652.36-.383.86-.574 1.5-.574.633 0 1.125.191 1.477.574.359.383.625.934.796 1.652.274 1.118.547 2.266.82 3.446.274 1.18.579 2.347.915 3.504a24.716 24.716 0 0 0 1.23 3.293c.813-.125 1.567-.07 2.262.164a3.427 3.427 0 0 1 1.688 1.195c.43.555.644 1.262.644 2.121 0 .594-.14 1.117-.422 1.57a2.933 2.933 0 0 1-1.16 1.067c-.484.258-1.035.386-1.652.386-.352 0-.692-.054-1.02-.164a3.754 3.754 0 0 1-.926-.468l-1.195 1.218c.469.383.973.68 1.512.891a4.538 4.538 0 0 0 1.64.316c1.04 0 1.946-.207 2.72-.62a4.387 4.387 0 0 0 1.816-1.723c.43-.735.644-1.598.644-2.59 0-.938-.215-1.781-.644-2.531a5.002 5.002 0 0 0-1.793-1.852c-.774-.484-1.676-.781-2.707-.89a52.678 52.678 0 0 1-1.442-4.337c-.21-.75-.414-1.496-.61-2.238-.187-.75-.366-1.492-.538-2.226-.266-1.196-.735-2.102-1.407-2.72-.671-.616-1.554-.925-2.648-.925s-1.977.309-2.648.926C8.68 2.539 8.21 3.445 7.945 4.64c-.175.742-.36 1.484-.55 2.226-.188.742-.391 1.488-.61 2.238-.21.743-.437 1.477-.68 2.204-.23.714-.48 1.425-.75 2.132-1.039.11-1.945.407-2.718.891a5.093 5.093 0 0 0-1.793 1.852c-.422.75-.633 1.593-.633 2.53 0 .993.215 1.856.644 2.59a4.431 4.431 0 0 0 1.805 1.723c.781.414 1.692.621 2.73.621ZM12 24c.953 0 1.77-.129 2.45-.387.679-.258 1.257-.593 1.734-1.008a8.177 8.177 0 0 0 1.23-1.289c.258.157.527.235.809.235.468 0 .832-.137 1.09-.41.257-.274.386-.582.386-.926 0-.336-.12-.64-.363-.914-.242-.281-.582-.422-1.02-.422-.32 0-.59.082-.808.246-.211.164-.45.387-.715.668-.484.523-.965.95-1.441 1.277a5.26 5.26 0 0 1-1.524.727A6.56 6.56 0 0 1 12 22.03c-.68 0-1.293-.078-1.84-.234a5.362 5.362 0 0 1-1.523-.727 8.552 8.552 0 0 1-1.43-1.277 5.602 5.602 0 0 0-.727-.668 1.294 1.294 0 0 0-.796-.246c-.446 0-.79.14-1.032.422-.226.25-.351.574-.351.914 0 .344.129.652.386.926.258.273.618.41 1.079.41.28 0 .55-.078.808-.235.352.454.766.883 1.242 1.29.477.414 1.055.75 1.735 1.007.68.258 1.496.387 2.449.387Zm0 0"/></svg>
